X:299
T:Summertime
C:George Gershwin
L:1/8
K:Em
B2 G2 | B8- | Bz A>G A>B G2 | E4 B,4- | B,2 z2 B2 G2 | 
A A3-A4 | z2 G>E G>E G2 | F8- | F4z B2 G | B B2 B- B4 | 
z2 A>G A>B G2 | E4 B,4- | B,4z2 B,2 | D2 B,D E2 G2 | 
B A3 G4 | GE3- E4- | E8- | E2 z2 z4 | z4 || 

